icons/device-desktop-24.svg

<svg xmlns="http://www.w3.org/2000/svg" width="24" height="24" viewBox="0 0 24 24"><path d="M8.954 17H2.75A1.75 1.75 0 011 15.25V3.75C1 2.784 1.784 2 2.75 2h18.5c.966 0 1.75.784 1.75 1.75v11.5A1.75 1.75 0 0121.25 17h-6.204c.171 1.375.805 2.652 1.769 3.757A.752.752 0 0116.25 22h-8.5a.75.75 0 01-.565-1.243c.964-1.105 1.598-2.382 1.769-3.757zM21.5 3.75a.25.25 0 00-.25-.25H2.75a.25.25 0 00-.25.25v11.5c0 .138.112.25.25.25h18.5a.25.25 0 00.25-.25zM13.537 17h-3.074c-.126 1.266-.564 2.445-1.223 3.5h5.52c-.659-1.055-1.098-2.234-1.223-3.5z"/></svg>

<svg xmlns="http://www.w3.org/2000/svg" width="24" height="24" viewBox="0 0 24 24">
  <defs/>
  <path d="M8.954,17 L2.75,17 C1.784,17 1,16.216 1,15.25 L1,3.75 C1,2.784 1.784,2 2.75,2 L21.25,2 C22.216,2 23,2.784 23,3.75 L23,15.25 C23,16.216 22.216,17 21.25,17 L15.046,17 C15.217,18.375 15.851,19.652 16.815,20.757 C17.008,20.979 17.054,21.293 16.933,21.56 C16.811,21.828 16.544,22 16.25,22 L7.75,22 C7.456,22 7.189,21.828 7.067,21.56 C6.946,21.293 6.992,20.979 7.185,20.757 C8.149,19.652 8.783,18.375 8.954,17 Z M21.5,3.75 C21.5,3.612 21.388,3.5 21.25,3.5 L2.75,3.5 C2.612,3.5 2.5,3.612 2.5,3.75 L2.5,15.25 C2.5,15.388 2.612,15.5 2.75,15.5 L21.25,15.5 C21.388,15.5 21.5,15.388 21.5,15.25 Z M13.537,17 L10.463,17 C10.337,18.266 9.899,19.445 9.24,20.5 L14.76,20.5 C14.101,19.445 13.662,18.266 13.537,17 Z"/>
</svg>
